!!!OTL: MAG AUCH DIE LIEBE WEINEN
!!!ARE: Europa, Mitteleuropa, Deutschland
!!!SCT: B0768
!!!YEM: Copyright 1995, estate of Helmut Schaffrath.
**kern
*ICvox
*Ivox
*M4/4
*k[b-e-]
*B-:
=1
{4f
8b-
8cc
4dd
4cc
=2
2b-
4f}
{4f#
=3
4g
4a
4b-
4cc
=4
2dd
4r}
{4f
=5
4b-
4dd
4ff
4ee-
=6
4ee-}
{4cc
8ff
8ee-
8dd
8cc
=7
4b-
4a
4g
8dd
8cc
=8
4b-
4a
4b-
4r}
==
!!!AGN: Trost - Lied, religioes
!!!ONB: ESAC (Essen Associative Code) Database: BOEHME
!!!AMT: simple quadruple
!!!AIN: vox
!!!EED: Helmut Schaffrath
!!!EEV: 1.0
*-
